src/contents/img/logo.svg

<?xml version="1.0" encoding="UTF-8"?>
<svg width="163px" height="17px" viewBox="0 0 163 17" version="1.1" xmlns="http://www.w3.org/2000/svg" xmlns:xlink="http://www.w3.org/1999/xlink">
    <!-- Generator: sketchtool 52.5 (67469) - http://www.bohemiancoding.com/sketch -->
    <title>ADEF0D51-6A74-4046-9107-10BB582E90B0</title>
    <desc>Created with sketchtool.</desc>
    <g id="Symbols" stroke="none" stroke-width="1" fill="none" fill-rule="evenodd">
        <g id="LOGO/" fill="#222222">
            <path d="M8.390625,0 C9.8515698,0 11.0976511,0.253903711 12.1289062,0.76171875 L12.1289062,4.34765625 L12.1054688,4.37109375 C11.6679666,3.69921539 10.7461008,3.25390734 9.33984375,3.03515625 C8.92577918,2.9648434 8.40234691,2.9296875 7.76953125,2.9296875 C7.13671559,2.9296875 6.51562805,3.04882693 5.90625,3.28710938 C5.29687195,3.52539182 4.79687695,3.86327906 4.40625,4.30078125 C3.64843371,5.15234801 3.26953125,6.36717961 3.26953125,7.9453125 C3.26953125,9.78125918 3.7499952,11.148433 4.7109375,12.046875 C5.50781648,12.7968787 6.56249344,13.171875 7.875,13.171875 C9.35938242,13.171875 10.5624954,12.8554719 11.484375,12.2226562 C11.8203142,11.9960926 12.1054676,11.7148454 12.3398438,11.3789062 L12.375,11.4023438 L12.375,14.6835938 C11.1796815,15.6757862 9.57032262,16.171875 7.546875,16.171875 C5.16405059,16.171875 3.29688176,15.4140701 1.9453125,13.8984375 C0.648431016,12.4531178 0,10.5390744 0,8.15625 C0,5.63279988 0.710930391,3.64453852 2.1328125,2.19140625 C3.57031969,0.730461445 5.65623633,0 8.390625,0 Z M17.6054688,14.0273438 C16.8945277,13.3476529 16.3339864,12.5312548 15.9238281,11.578125 C15.5136698,10.6249952 15.3085938,9.58008381 15.3085938,8.44335938 C15.3085938,7.30663494 15.4999981,6.23047383 15.8828125,5.21484375 C16.2656269,4.19921367 16.8124964,3.30469137 17.5234375,2.53125 C18.2343786,1.75780863 19.093745,1.14258041 20.1015625,0.685546875 C21.10938,0.22851334 22.238275,0 23.4882812,0 C25.644542,0 27.4609301,0.679680703 28.9375,2.0390625 C30.5156329,3.49219477 31.3046875,5.45311266 31.3046875,7.921875 C31.3046875,10.312512 30.4921956,12.3007733 28.8671875,13.8867188 C27.8671825,14.8632861 26.6757882,15.5351544 25.2929688,15.9023438 C24.6132779,16.0820321 23.8183639,16.171875 22.9082031,16.171875 C21.9980423,16.171875 21.0644579,15.9843769 20.1074219,15.609375 C19.1503858,15.2343731 18.3164098,14.7070346 17.6054688,14.0273438 Z M18.5664062,8.28515625 C18.5664062,9.01172238 18.6874988,9.67968445 18.9296875,10.2890625 C19.1718762,10.8984405 19.5078104,11.4218728 19.9375,11.859375 C20.8515671,12.7812546 22.0273366,13.2421875 23.4648438,13.2421875 C24.8320381,13.2421875 25.9296834,12.8007857 26.7578125,11.9179688 C27.6015667,11.0039017 28.0234375,9.75782039 28.0234375,8.1796875 C28.0234375,6.69530508 27.6210978,5.45703621 26.8164062,4.46484375 C25.9492144,3.40233844 24.7617263,2.87109375 23.2539062,2.87109375 C21.7929614,2.87109375 20.6328168,3.41015086 19.7734375,4.48828125 C18.968746,5.49609879 18.5664062,6.76171113 18.5664062,8.28515625 Z M37.6015625,15.8789062 C36.4531193,15.8789062 35.6914081,15.9023435 35.3164062,15.9492188 L35.3164062,0.22265625 C35.5039072,0.269531484 35.8925752,0.29296875 36.4824219,0.29296875 C37.0722686,0.29296875 37.7578086,0.277343906 38.5390625,0.24609375 L38.5390625,13.0664062 L40.9648438,13.0664062 C41.6679723,13.0664062 42.2304666,13.042969 42.6523438,12.9960938 C42.597656,14.8242279 42.5703125,15.7734371 42.5703125,15.84375 L42.5703125,15.9609375 C41.8046837,15.9062497 40.5195403,15.8789062 38.7148438,15.8789062 L37.6015625,15.8789062 Z M47.6132812,14.0273438 C46.9023402,13.3476529 46.3417989,12.5312548 45.9316406,11.578125 C45.5214823,10.6249952 45.3164062,9.58008381 45.3164062,8.44335938 C45.3164062,7.30663494 45.5078106,6.23047383 45.890625,5.21484375 C46.2734394,4.19921367 46.8203089,3.30469137 47.53125,2.53125 C48.2421911,1.75780863 49.1015575,1.14258041 50.109375,0.685546875 C51.1171925,0.22851334 52.2460875,0 53.4960938,0 C55.6523545,0 57.4687426,0.679680703 58.9453125,2.0390625 C60.5234454,3.49219477 61.3125,5.45311266 61.3125,7.921875 C61.3125,10.312512 60.5000081,12.3007733 58.875,13.8867188 C57.874995,14.8632861 56.6836007,15.5351544 55.3007812,15.9023438 C54.6210904,16.0820321 53.8261764,16.171875 52.9160156,16.171875 C52.0058548,16.171875 51.0722704,15.9843769 50.1152344,15.609375 C49.1581983,15.2343731 48.3242223,14.7070346 47.6132812,14.0273438 Z M48.5742188,8.28515625 C48.5742188,9.01172238 48.6953113,9.67968445 48.9375,10.2890625 C49.1796887,10.8984405 49.5156229,11.4218728 49.9453125,11.859375 C50.8593796,12.7812546 52.0351491,13.2421875 53.4726562,13.2421875 C54.8398506,13.2421875 55.9374959,12.8007857 56.765625,11.9179688 C57.6093792,11.0039017 58.03125,9.75782039 58.03125,8.1796875 C58.03125,6.69530508 57.6289103,5.45703621 56.8242188,4.46484375 C55.9570269,3.40233844 54.7695388,2.87109375 53.2617188,2.87109375 C51.8007739,2.87109375 50.6406293,3.41015086 49.78125,4.48828125 C48.9765585,5.49609879 48.5742188,6.76171113 48.5742188,8.28515625 Z M70.3632812,9.8203125 C70.1289051,9.83593758 69.8789076,9.84375 69.6132812,9.84375 C69.3476549,9.84375 68.9531276,9.82421895 68.4296875,9.78515625 L68.4296875,15.8789062 L65.3242188,15.8789062 L65.3242188,0.2109375 C66.4179742,0.0703117969 67.7617108,0 69.3554688,0 C71.5273546,0 73.146479,0.400386621 74.2128906,1.20117188 C75.2793022,2.00195713 75.8125,3.23827289 75.8125,4.91015625 C75.8125,6.20703773 75.3242236,7.31640164 74.3476562,8.23828125 C74.0273421,8.53515773 73.6601583,8.79296766 73.2460938,9.01171875 L75.6367188,14.0507812 C76.1054711,15.0898489 76.4648425,15.7070303 76.7148438,15.9023438 L76.65625,15.9609375 C75.8984337,15.8359369 74.7070394,15.8398431 73.0820312,15.9726562 L70.3632812,9.8203125 Z M69.578125,2.765625 C69.1796855,2.765625 68.7968768,2.78515605 68.4296875,2.82421875 L68.4296875,7.30078125 C68.8125019,7.35546902 69.2617162,7.3828125 69.7773438,7.3828125 C70.2929713,7.3828125 70.7265607,7.33789107 71.078125,7.24804688 C71.4296893,7.15820268 71.7343737,7.01953219 71.9921875,6.83203125 C72.5468778,6.41796668 72.8242188,5.79687914 72.8242188,4.96875 C72.8242188,4.14062086 72.5351591,3.55859543 71.9570312,3.22265625 C71.4179661,2.91796723 70.6250052,2.765625 69.578125,2.765625 Z M90.1484375,14.7421875 C89.5781221,15.1953148 88.8359421,15.5468737 87.921875,15.796875 C87.0078079,16.0468763 85.8847723,16.171875 84.5527344,16.171875 C83.2206965,16.171875 81.804695,16.0507825 80.3046875,15.8085937 L80.3046875,0.36328125 C81.8203201,0.121092539 83.1347601,0 84.2480469,0 C85.3613337,0 86.2753871,0.105467695 86.9902344,0.31640625 C87.7050817,0.527344805 88.2890602,0.812498203 88.7421875,1.171875 C89.632817,1.86719098 90.078125,2.7675726 90.078125,3.87304688 C90.078125,4.97852115 89.6757853,5.89452762 88.8710938,6.62109375 C89.8242235,6.91797023 90.5624974,7.48046461 91.0859375,8.30859375 C91.5625024,9.05078496 91.8007812,9.87304236 91.8007812,10.7753906 C91.8007812,11.6777389 91.6699232,12.4492155 91.4082031,13.0898438 C91.1464831,13.730472 90.7265654,14.2812477 90.1484375,14.7421875 Z M83.4101562,6.1875 C83.7382829,6.24218777 84.148435,6.26953125 84.640625,6.26953125 C85.132815,6.26953125 85.5371078,6.20507877 85.8535156,6.07617188 C86.1699235,5.94726498 86.4140616,5.78515723 86.5859375,5.58984375 C86.8671889,5.26952965 87.0078125,4.8242216 87.0078125,4.25390625 C87.0078125,3.05858777 86.3046945,2.4609375 84.8984375,2.4609375 C84.3046845,2.4609375 83.8085957,2.48437477 83.4101562,2.53125 L83.4101562,6.1875 Z M85.1445312,8.6953125 C84.488278,8.6953125 83.9101587,8.73828082 83.4101562,8.82421875 L83.4101562,13.4296875 C83.957034,13.5703132 84.531247,13.640625 85.1328125,13.640625 C85.734378,13.640625 86.2636696,13.5683601 86.7207031,13.4238281 C87.1777367,13.2792962 87.5624984,13.0820325 87.875,12.8320312 C88.5078157,12.3164037 88.8242188,11.6601602 88.8242188,10.8632812 C88.8242188,9.41796152 87.5976685,8.6953125 85.1445312,8.6953125 Z M100.371094,9.8203125 C100.136718,9.83593758 99.8867201,9.84375 99.6210938,9.84375 C99.3554674,9.84375 98.9609401,9.82421895 98.4375,9.78515625 L98.4375,15.8789062 L95.3320312,15.8789062 L95.3320312,0.2109375 C96.4257867,0.0703117969 97.7695233,0 99.3632812,0 C101.535167,0 103.154292,0.400386621 104.220703,1.20117188 C105.287115,2.00195713 105.820312,3.23827289 105.820312,4.91015625 C105.820312,6.20703773 105.332036,7.31640164 104.355469,8.23828125 C104.035155,8.53515773 103.667971,8.79296766 103.253906,9.01171875 L105.644531,14.0507812 C106.113284,15.0898489 106.472655,15.7070303 106.722656,15.9023438 L106.664062,15.9609375 C105.906246,15.8359369 104.714852,15.8398431 103.089844,15.9726562 L100.371094,9.8203125 Z M99.5859375,2.765625 C99.187498,2.765625 98.8046893,2.78515605 98.4375,2.82421875 L98.4375,7.30078125 C98.8203144,7.35546902 99.2695287,7.3828125 99.7851562,7.3828125 C100.300784,7.3828125 100.734373,7.33789107 101.085938,7.24804688 C101.437502,7.15820268 101.742186,7.01953219 102,6.83203125 C102.55469,6.41796668 102.832031,5.79687914 102.832031,4.96875 C102.832031,4.14062086 102.542972,3.55859543 101.964844,3.22265625 C101.425779,2.91796723 100.632818,2.765625 99.5859375,2.765625 Z M110.675781,0.24609375 C111.457035,0.277343906 111.929687,0.29296875 112.09375,0.29296875 L112.9375,0.29296875 C113.351565,0.29296875 113.683593,0.261719062 113.933594,0.19921875 L113.921875,15.8789062 L110.675781,15.8789062 L110.675781,0.24609375 Z M123.125,16.171875 C121.859369,16.171875 120.667974,16.0703135 119.550781,15.8671875 L119.550781,0.1875 C120.582036,0.062499375 121.77929,0 123.142578,0 C124.505866,0 125.740229,0.18554502 126.845703,0.556640625 C127.951177,0.92773623 128.874996,1.45702781 129.617188,2.14453125 C131.117195,3.51953813 131.867188,5.44530012 131.867188,7.921875 C131.867188,10.6953264 131.031258,12.8007741 129.359375,14.2382812 C127.859367,15.5273502 125.781263,16.171875 123.125,16.171875 Z M122.597656,13.3125 C123.105471,13.4062505 123.613279,13.453125 124.121094,13.453125 C124.628909,13.453125 125.175778,13.3535166 125.761719,13.1542969 C126.347659,12.9550771 126.855467,12.6445334 127.285156,12.2226562 C128.207036,11.3320268 128.667969,10.0351648 128.667969,8.33203125 C128.667969,5.53514227 127.648448,3.81640945 125.609375,3.17578125 C124.937497,2.9648427 124.160161,2.859375 123.277344,2.859375 L122.960938,2.859375 C122.843749,2.859375 122.722657,2.86328121 122.597656,2.87109375 L122.597656,13.3125 Z M149.15625,6.48046875 C149.007812,6.74609508 148.933594,7.38280746 148.933594,8.390625 L148.933594,12.0234375 C148.933594,13.1250055 148.363287,14.0820272 147.222656,14.8945312 C146.042963,15.746098 144.597665,16.171875 142.886719,16.171875 C140.511707,16.171875 138.617195,15.4257887 137.203125,13.9335938 C135.835931,12.5117116 135.152344,10.6992298 135.152344,8.49609375 C135.152344,6.15233203 135.847649,4.19922656 137.238281,2.63671875 C138.792977,0.878897461 140.93358,0 143.660156,0 C145.480478,0 146.92187,0.351558984 147.984375,1.0546875 L147.796875,4.51171875 L147.703125,4.53515625 C147.429686,4.05859137 146.890629,3.66797027 146.085938,3.36328125 C145.320309,3.0742173 144.517582,2.9296875 143.677734,2.9296875 C142.837886,2.9296875 142.103519,3.06249867 141.474609,3.328125 C140.8457,3.59375133 140.312502,3.97265379 139.875,4.46484375 C138.95312,5.47266129 138.492188,6.80467922 138.492188,8.4609375 C138.492188,9.90625723 138.898433,11.0664019 139.710938,11.9414062 C140.523442,12.8085981 141.570306,13.2421875 142.851562,13.2421875 C144.265632,13.2421875 145.218748,12.8750037 145.710938,12.140625 C145.867188,11.9062488 145.945312,11.6406265 145.945312,11.34375 L145.945312,9.3984375 L144.433594,9.3984375 C143.62109,9.3984375 143.179688,9.4687493 143.109375,9.609375 L143.074219,9.59765625 L142.96875,6.5390625 C143.187501,6.60156281 144.074211,6.6328125 145.628906,6.6328125 L147.011719,6.6328125 C147.871098,6.6328125 148.574216,6.57421934 149.121094,6.45703125 L149.15625,6.48046875 Z M161.136719,13.0664062 C161.621096,13.0664062 161.95703,13.0195317 162.144531,12.9257812 L162.191406,12.9375 L162.074219,15.8789062 L153.296875,15.8789062 L153.296875,0.2109375 C153.507814,0.226562578 153.742186,0.238281211 154,0.24609375 L154.820312,0.26953125 C155.36719,0.285156328 155.960934,0.29296875 156.601562,0.29296875 C158.390634,0.29296875 160.160147,0.261719062 161.910156,0.19921875 C161.824218,0.886722187 161.78125,1.80468176 161.78125,2.953125 C161.78125,3.07812562 161.789062,3.17187469 161.804688,3.234375 L161.78125,3.26953125 C161.374998,3.15234316 160.796879,3.09375 160.046875,3.09375 L156.355469,3.09375 L156.355469,6.08203125 L159.132812,6.08203125 C159.992192,6.08203125 160.507812,6.05859398 160.679688,6.01171875 L160.714844,8.90625 C160.339842,8.8671873 159.855472,8.84765625 159.261719,8.84765625 L156.355469,8.84765625 L156.355469,13.0664062 L161.136719,13.0664062 Z" id="logo-bk"></path>
        </g>
    </g>
</svg>

<svg width="163" height="17" xmlns="http://www.w3.org/2000/svg"><path d="M8.39 0c1.462 0 2.708.254 3.739.762v3.586l-.024.023c-.437-.672-1.359-1.117-2.765-1.336-.414-.07-.938-.105-1.57-.105-.633 0-1.254.119-1.864.357-.61.238-1.11.576-1.5 1.014-.758.851-1.136 2.066-1.136 3.644 0 1.836.48 3.203 1.44 4.102.798.75 1.852 1.125 3.165 1.125 1.484 0 2.687-.317 3.61-.95.335-.226.62-.507.855-.843l.035.023v3.282c-1.195.992-2.805 1.488-4.828 1.488-2.383 0-4.25-.758-5.602-2.274C.648 12.453 0 10.54 0 8.156c0-2.523.71-4.511 2.133-5.965C3.57.731 5.656 0 8.39 0zm9.215 14.027a7.38 7.38 0 01-1.681-2.449c-.41-.953-.615-1.998-.615-3.135a9.07 9.07 0 01.574-3.228 8.193 8.193 0 011.64-2.684A7.87 7.87 0 0120.102.686C21.109.229 22.238 0 23.488 0c2.157 0 3.973.68 5.45 2.04 1.578 1.452 2.367 3.413 2.367 5.882 0 2.39-.813 4.379-2.438 5.965a7.942 7.942 0 01-3.574 2.015c-.68.18-1.475.27-2.385.27-.91 0-1.844-.188-2.8-.563a7.58 7.58 0 01-2.503-1.582zm.961-5.742c0 .727.121 1.395.364 2.004.242.61.578 1.133 1.008 1.57.914.922 2.09 1.383 3.527 1.383 1.367 0 2.465-.441 3.293-1.324.844-.914 1.265-2.16 1.265-3.738 0-1.485-.402-2.723-1.207-3.715-.867-1.063-2.054-1.594-3.562-1.594-1.461 0-2.621.54-3.48 1.617-.805 1.008-1.208 2.274-1.208 3.797zm19.036 7.594c-1.149 0-1.91.023-2.286.07V.223c.188.047.577.07 1.166.07.59 0 1.276-.016 2.057-.047v12.82h2.426c.703 0 1.265-.023 1.687-.07a524.88 524.88 0 00-.082 2.848v.117c-.765-.055-2.05-.082-3.855-.082h-1.113zm10.011-1.852a7.38 7.38 0 01-1.681-2.449c-.41-.953-.616-1.998-.616-3.135a9.07 9.07 0 01.575-3.228 8.193 8.193 0 011.64-2.684A7.87 7.87 0 0150.11.686C51.117.229 52.246 0 53.496 0c2.156 0 3.973.68 5.45 2.04 1.577 1.452 2.367 3.413 2.367 5.882 0 2.39-.813 4.379-2.438 5.965a7.942 7.942 0 01-3.574 2.015c-.68.18-1.475.27-2.385.27-.91 0-1.844-.188-2.8-.563a7.58 7.58 0 01-2.503-1.582zm.961-5.742c0 .727.121 1.395.364 2.004a4.67 4.67 0 001.007 1.57c.914.922 2.09 1.383 3.528 1.383 1.367 0 2.464-.441 3.293-1.324.843-.914 1.265-2.16 1.265-3.738 0-1.485-.402-2.723-1.207-3.715-.867-1.063-2.054-1.594-3.562-1.594-1.461 0-2.621.54-3.48 1.617-.805 1.008-1.208 2.274-1.208 3.797zm21.79 1.535c-.235.016-.485.024-.75.024-.266 0-.66-.02-1.184-.059v6.094h-3.106V.21C66.418.07 67.762 0 69.355 0c2.172 0 3.791.4 4.858 1.201 1.066.801 1.6 2.037 1.6 3.71 0 1.296-.489 2.405-1.465 3.327a5.15 5.15 0 01-1.102.774l2.39 5.039c.47 1.039.829 1.656 1.079 1.851l-.059.059c-.758-.125-1.949-.121-3.574.012L70.363 9.82zm-.786-7.054c-.398 0-.781.02-1.148.058v4.477a9.66 9.66 0 001.347.082c.516 0 .95-.045 1.301-.135.352-.09.656-.228.914-.416.555-.414.832-1.035.832-1.863 0-.828-.289-1.41-.867-1.746-.539-.305-1.332-.457-2.379-.457zm20.57 11.976c-.57.453-1.312.805-2.226 1.055-.914.25-2.037.375-3.37.375-1.331 0-2.747-.121-4.247-.363V.363C81.82.121 83.135 0 84.248 0s2.027.105 2.742.316c.715.211 1.3.496 1.752.856.89.695 1.336 1.596 1.336 2.701 0 1.106-.402 2.022-1.207 2.748.953.297 1.691.86 2.215 1.688.477.742.715 1.564.715 2.466 0 .903-.131 1.674-.393 2.315a4.058 4.058 0 01-1.26 1.652zM83.41 6.187a7.68 7.68 0 001.23.083c.493 0 .897-.065 1.214-.194.316-.129.56-.29.732-.486.281-.32.422-.766.422-1.336 0-1.195-.703-1.793-2.11-1.793-.593 0-1.09.023-1.488.07v3.656zm1.735 2.508c-.657 0-1.235.043-1.735.13v4.605c.547.14 1.121.21 1.723.21.601 0 1.13-.072 1.588-.216a3.533 3.533 0 001.154-.592c.633-.516.95-1.172.95-1.969 0-1.445-1.227-2.168-3.68-2.168zM100.37 9.82c-.234.016-.484.024-.75.024s-.66-.02-1.183-.059v6.094h-3.106V.21C96.426.07 97.77 0 99.363 0c2.172 0 3.791.4 4.858 1.201 1.066.801 1.6 2.037 1.6 3.71 0 1.296-.489 2.405-1.466 3.327-.32.297-.687.555-1.101.774l2.39 5.039c.47 1.039.829 1.656 1.079 1.851l-.059.059c-.758-.125-1.95-.121-3.574.012l-2.72-6.153zm-.785-7.054c-.399 0-.781.02-1.148.058v4.477a9.66 9.66 0 001.347.082c.516 0 .95-.045 1.3-.135.353-.09.657-.228.915-.416.555-.414.832-1.035.832-1.863 0-.828-.289-1.41-.867-1.746-.54-.305-1.332-.457-2.38-.457zm11.09-2.52c.781.031 1.254.047 1.418.047h.844c.414 0 .746-.031.996-.094l-.012 15.68h-3.246V.246zm12.449 15.926a19.98 19.98 0 01-3.574-.305V.187C120.582.063 121.779 0 123.143 0c1.363 0 2.597.186 3.703.557 1.105.37 2.029.9 2.771 1.588 1.5 1.375 2.25 3.3 2.25 5.777 0 2.773-.836 4.879-2.508 6.316-1.5 1.29-3.578 1.934-6.234 1.934zm-.527-2.86c.507.094 1.015.141 1.523.141s1.055-.1 1.64-.299a3.97 3.97 0 001.524-.931c.922-.891 1.383-2.188 1.383-3.891 0-2.797-1.02-4.516-3.059-5.156-.672-.211-1.449-.317-2.332-.317h-.316c-.117 0-.238.004-.363.012v10.441zm26.558-6.832c-.148.266-.222.903-.222 1.91v3.633c0 1.102-.57 2.059-1.711 2.872-1.18.851-2.625 1.277-4.336 1.277-2.375 0-4.27-.746-5.684-2.238-1.367-1.422-2.05-3.235-2.05-5.438 0-2.344.695-4.297 2.085-5.86C138.793.88 140.934 0 143.66 0c1.82 0 3.262.352 4.324 1.055l-.187 3.457-.094.023c-.273-.476-.812-.867-1.617-1.172a6.761 6.761 0 00-2.408-.433c-.84 0-1.574.132-2.203.398a4.398 4.398 0 00-1.6 1.137c-.922 1.008-1.383 2.34-1.383 3.996 0 1.445.406 2.605 1.219 3.48.812.868 1.86 1.301 3.14 1.301 1.415 0 2.368-.367 2.86-1.101.156-.235.234-.5.234-.797V9.398h-1.511c-.813 0-1.254.07-1.325.211l-.035-.011-.105-3.059c.219.063 1.105.094 2.66.094h1.383c.86 0 1.562-.059 2.11-.176l.034.023zm11.98 6.586c.485 0 .821-.046 1.009-.14l.046.011-.117 2.942h-8.777V.21c.21.016.445.027.703.035l.82.024c.547.015 1.14.023 1.782.023 1.789 0 3.558-.031 5.308-.094-.086.688-.129 1.606-.129 2.754 0 .125.008.219.024.281l-.024.036c-.406-.118-.984-.176-1.734-.176h-3.692v2.988h2.778c.86 0 1.375-.023 1.547-.07l.035 2.894a14.56 14.56 0 00-1.453-.058h-2.907v4.218h4.782z" fill="#222" fill-rule="evenodd"/></svg>
